X:0791
M:C|
L:1/8
Q:1/2=104
K:G
                                   [2 d<Bg>B A2A2||
g>age dBBe|d<Bc<A B2B2|g>age dB`Be|   dB`BG  A2A2 |
g>age dBBe|d<Bc>A B2B2|g>age d>ega|   ge`dc  A2A2|]

